32x32/emotes/emote-love.svg

<svg xmlns="http://www.w3.org/2000/svg" width="32" height="32" version="1">
 <path style="opacity:0.2" d="M 10.078125,3 C 5.6166868,3 2,7.1162801 2,12.193359 c 0,1.364118 0.2111436,2.676126 0.5820312,3.929688 0,0 0.3368374,1.131263 0.6347657,1.753906 C 6.6218462,25.837929 16,31 16,31 16,31 25.378154,25.837929 28.783203,17.876953 29.081132,17.25431 29.417969,16.123047 29.417969,16.123047 29.788857,14.869485 30,13.557477 30,12.193359 30,7.1162801 26.383314,3 21.921875,3 19.582097,3 17.475684,4.1910383 16,6 14.524316,4.1910383 12.417903,3 10.078125,3 Z"/>
 <path style="fill:#c2352a" d="M 10.078125 2 C 5.6166868 2 2 6.1162801 2 11.193359 C 2 12.557477 2.2111436 13.869485 2.5820312 15.123047 C 2.5820312 15.123047 2.9188686 16.25431 3.2167969 16.876953 C 6.6218462 24.837929 16 30 16 30 C 16 30 25.378154 24.837929 28.783203 16.876953 C 29.081132 16.25431 29.417969 15.123047 29.417969 15.123047 C 29.788857 13.869485 30 12.557477 30 11.193359 C 30 6.1162801 26.383314 2 21.921875 2 C 19.582097 2 17.475684 3.1910383 16 5 C 14.524316 3.1910383 12.417903 2 10.078125 2 z"/>
 <path style="fill:#f4f4f7;opacity:0.1" d="M 10.078125 2 C 5.6166868 2 2 6.1162805 2 11.193359 C 2 11.372076 2.0123986 11.547696 2.0195312 11.724609 C 2.2354402 6.8668695 5.7558048 3 10.078125 3 C 12.417903 3 14.524316 4.1910383 16 6 C 17.475684 4.1910383 19.582097 3 21.921875 3 C 26.244196 3 29.76456 6.8668695 29.980469 11.724609 C 29.987601 11.547696 30 11.372076 30 11.193359 C 30 6.1162805 26.383314 2 21.921875 2 C 19.582097 2 17.475684 3.1910383 16 5 C 14.524316 3.1910383 12.417903 2 10.078125 2 z"/>
</svg>

<svg xmlns="http://www.w3.org/2000/svg" width="32" height="32" version="1"><path style="opacity:.2" d="M10.078 3C5.617 3 2 7.116 2 12.193c0 1.364.211 2.676.582 3.93 0 0 .337 1.131.635 1.754C6.622 25.837 16 31 16 31s9.378-5.162 12.783-13.123c.298-.623.635-1.754.635-1.754.37-1.254.582-2.566.582-3.93C30 7.116 26.383 3 21.922 3 19.582 3 17.476 4.191 16 6c-1.476-1.809-3.582-3-5.922-3z"/><path style="fill:#c2352a" d="M10.078 2C5.617 2 2 6.116 2 11.193c0 1.364.211 2.676.582 3.93 0 0 .337 1.131.635 1.754C6.622 24.837 16 30 16 30s9.378-5.162 12.783-13.123c.298-.623.635-1.754.635-1.754.37-1.254.582-2.566.582-3.93C30 6.116 26.383 2 21.922 2 19.582 2 17.476 3.191 16 5c-1.476-1.809-3.582-3-5.922-3z"/><path style="fill:#f4f4f7;opacity:.1" d="M10.078 2C5.617 2 2 6.116 2 11.193c0 .18.012.355.02.532C2.235 6.867 5.756 3 10.078 3c2.34 0 4.446 1.191 5.922 3 1.476-1.809 3.582-3 5.922-3 4.322 0 7.843 3.867 8.058 8.725.008-.177.02-.353.02-.532C30 6.116 26.383 2 21.922 2 19.582 2 17.476 3.191 16 5c-1.476-1.809-3.582-3-5.922-3z"/></svg>
